X: 3340
T: Belles Of Tipperary, The
R: reel
M: 4/4
K: Dmajor
|:D3 E F3 A|defe dBBA|B3 d BdAB|dfaf e2 dB|
AD ~D2 FDFA|defe dBBA|~B2 Ad BdAc|dcdA FD D2:|
|:f^gab afdf|bafe fedB|~d2 f^g ~a2 fa|bfaf e3 a|
fa (3aaa afdf|bafe fedA|~B2 Ad BdAc|1 dcdA FD D2:|2 dcdF GEFE||

